X:778
T:Rothesay Bay
C:Joe Buchanan's Scottish Tome - Page 533.1
I:533 1
Z:Carl Allison
R:Slow Air
L:1/4
M:3/4
K:D
(FG) | "D"A3 | "A"A2 A | "D"(A2 (d) | "D"d) (D E) | "D"F3 | "A"(F2 E) | "D"(F A2) | "D"(A F E) |
"G"D3 | "G"(C2 D) | "G"B3 | "D"(A2 F) | "D"D2 D | "E"(F2 E) | "A"E3- | "A"A (F G) |
"D"A3 | "A"A2 A | "D"A d2- | "D"d (D E) | "D"F3 | "A"(F2 E) | "D"(F A2) | "D"(A F D) |
"G"(E2 F) | "G"(G2 A) | "G"(B2 c) | "G"(d c B) | "D"(A2 d) | "A"(F2 E) | "D"D3- | "D"D2 :|

